content/linear-algebra/images/vecadd.svg

<svg height="113.39pt" viewBox="0 0 113.39 113.39" width="113.39pt" xmlns="http://www.w3.org/2000/svg" xmlns:xlink="http://www.w3.org/1999/xlink"><clipPath id="a"><path d="m105 109h8.390625v4.390625h-8.390625zm0 0"/></clipPath><clipPath id="b"><path d="m105 108h8.390625v5.390625h-8.390625zm0 0"/></clipPath><path d="m274.570312 22.610938v1007.929687" style="fill:none;stroke-width:5;stroke-linecap:round;stroke-linejoin:round;stroke:#7f7f7f;stroke-miterlimit:10" transform="matrix(.1 0 0 -.1 0 113.39)"/><path d="m22.617188 274.603125h1007.929687" style="fill:none;stroke-width:5;stroke-linecap:round;stroke-linejoin:round;stroke:#7f7f7f;stroke-miterlimit:10" transform="matrix(.1 0 0 -.1 0 113.39)"/><path d="m526.5625 22.610938v1007.929687" style="fill:none;stroke-width:5;stroke-linecap:round;stroke-linejoin:round;stroke:#7f7f7f;stroke-miterlimit:10" transform="matrix(.1 0 0 -.1 0 113.39)"/><path d="m22.617188 526.595313h1007.929687" style="fill:none;stroke-width:5;stroke-linecap:round;stroke-linejoin:round;stroke:#7f7f7f;stroke-miterlimit:10" transform="matrix(.1 0 0 -.1 0 113.39)"/><path d="m778.554688 22.610938v1007.929687" style="fill:none;stroke-width:5;stroke-linecap:round;stroke-linejoin:round;stroke:#7f7f7f;stroke-miterlimit:10" transform="matrix(.1 0 0 -.1 0 113.39)"/><path d="m22.617188 778.5875h1007.929687" style="fill:none;stroke-width:5;stroke-linecap:round;stroke-linejoin:round;stroke:#7f7f7f;stroke-miterlimit:10" transform="matrix(.1 0 0 -.1 0 113.39)"/><path d="m1030.546875 22.610938v1007.929687" style="fill:none;stroke-width:5;stroke-linecap:round;stroke-linejoin:round;stroke:#7f7f7f;stroke-miterlimit:10" transform="matrix(.1 0 0 -.1 0 113.39)"/><path d="m22.617188 1030.540625h1007.929687" style="fill:none;stroke-width:5;stroke-linecap:round;stroke-linejoin:round;stroke:#7f7f7f;stroke-miterlimit:10" transform="matrix(.1 0 0 -.1 0 113.39)"/><path d="m1056.367188 22.610938h-1033.75v1033.75" style="fill:none;stroke-width:5;stroke-linecap:round;stroke-linejoin:round;stroke:#000;stroke-miterlimit:10" transform="matrix(.1 0 0 -.1 0 113.39)"/><g clip-path="url(#a)"><path d="m113.136719 111.128906-7.5-2.007812v4.019531zm0 0"/></g><g clip-path="url(#b)"><path d="m1131.367188 22.610938-75 20.078125v-40.195313zm0 0" style="fill:none;stroke-width:5;stroke-linecap:round;stroke-linejoin:round;stroke:#000;stroke-miterlimit:10" transform="matrix(.1 0 0 -.1 0 113.39)"/></g><g stroke-linecap="round" stroke-linejoin="round" stroke-miterlimit="10" transform="matrix(.1 0 0 -.1 0 113.39)"><path d="m22.617188 1131.360938-20.117188-75h40.195312zm0 0" stroke="#000" stroke-width="5"/><path d="m707.421875 250.853125-684.804687-228.242187" fill="none" stroke="#191970" stroke-width="5"/><path d="m778.554688 274.603125-77.5-4.6875 12.734374-38.125zm0 0" fill="#191970" stroke="#191970" stroke-width="5"/><path d="m22.617188 22.610938 695.46875 231.835937" fill="none" stroke="#191970" stroke-width="15"/><path d="m997.03125 711.478125-218.476562-436.875" fill="none" stroke="#ff8c00" stroke-width="5"/><path d="m1030.546875 778.5875-51.484375-58.125 35.9375-17.96875zm0 0" fill="#ff8c00" stroke="#ff8c00" stroke-width="5"/><path d="m778.554688 274.603125 231.835937 463.632813" fill="none" stroke="#ff8c00" stroke-width="15"/><path d="m970.546875 733.5875-947.929687-710.976562" fill="none" stroke="#2e8b57" stroke-width="5"/><path d="m1030.546875 778.5875-72.03125-28.945312 24.101563-32.148438zm0 0" fill="#2e8b57" stroke="#2e8b57" stroke-width="5"/><path d="m22.617188 22.610938 957.539062 718.164062" fill="none" stroke="#2e8b57" stroke-width="15"/></g></svg>

<?xml version="1.0" encoding="UTF-8"?>
<svg xmlns="http://www.w3.org/2000/svg" xmlns:xlink="http://www.w3.org/1999/xlink" width="113.39pt" height="113.39pt" viewBox="0 0 113.39 113.39" version="1.1">
<defs>
<clipPath id="clip1">
  <path d="M 105 109 L 113.390625 109 L 113.390625 113.390625 L 105 113.390625 Z M 105 109 "/>
</clipPath>
<clipPath id="clip2">
  <path d="M 105 108 L 113.390625 108 L 113.390625 113.390625 L 105 113.390625 Z M 105 108 "/>
</clipPath>
</defs>
<g id="surface1">
<path style="fill:none;stroke-width:5;stroke-linecap:round;stroke-linejoin:round;stroke:rgb(50%,50%,50%);stroke-opacity:1;stroke-miterlimit:10;" d="M 274.570312 22.610938 L 274.570312 1030.540625 " transform="matrix(0.1,0,0,-0.1,0,113.39)"/>
<path style="fill:none;stroke-width:5;stroke-linecap:round;stroke-linejoin:round;stroke:rgb(50%,50%,50%);stroke-opacity:1;stroke-miterlimit:10;" d="M 22.617188 274.603125 L 1030.546875 274.603125 " transform="matrix(0.1,0,0,-0.1,0,113.39)"/>
<path style="fill:none;stroke-width:5;stroke-linecap:round;stroke-linejoin:round;stroke:rgb(50%,50%,50%);stroke-opacity:1;stroke-miterlimit:10;" d="M 526.5625 22.610938 L 526.5625 1030.540625 " transform="matrix(0.1,0,0,-0.1,0,113.39)"/>
<path style="fill:none;stroke-width:5;stroke-linecap:round;stroke-linejoin:round;stroke:rgb(50%,50%,50%);stroke-opacity:1;stroke-miterlimit:10;" d="M 22.617188 526.595313 L 1030.546875 526.595313 " transform="matrix(0.1,0,0,-0.1,0,113.39)"/>
<path style="fill:none;stroke-width:5;stroke-linecap:round;stroke-linejoin:round;stroke:rgb(50%,50%,50%);stroke-opacity:1;stroke-miterlimit:10;" d="M 778.554688 22.610938 L 778.554688 1030.540625 " transform="matrix(0.1,0,0,-0.1,0,113.39)"/>
<path style="fill:none;stroke-width:5;stroke-linecap:round;stroke-linejoin:round;stroke:rgb(50%,50%,50%);stroke-opacity:1;stroke-miterlimit:10;" d="M 22.617188 778.5875 L 1030.546875 778.5875 " transform="matrix(0.1,0,0,-0.1,0,113.39)"/>
<path style="fill:none;stroke-width:5;stroke-linecap:round;stroke-linejoin:round;stroke:rgb(50%,50%,50%);stroke-opacity:1;stroke-miterlimit:10;" d="M 1030.546875 22.610938 L 1030.546875 1030.540625 " transform="matrix(0.1,0,0,-0.1,0,113.39)"/>
<path style="fill:none;stroke-width:5;stroke-linecap:round;stroke-linejoin:round;stroke:rgb(50%,50%,50%);stroke-opacity:1;stroke-miterlimit:10;" d="M 22.617188 1030.540625 L 1030.546875 1030.540625 " transform="matrix(0.1,0,0,-0.1,0,113.39)"/>
<path style="fill:none;stroke-width:5;stroke-linecap:round;stroke-linejoin:round;stroke:rgb(0%,0%,0%);stroke-opacity:1;stroke-miterlimit:10;" d="M 1056.367188 22.610938 L 22.617188 22.610938 L 22.617188 1056.360938 " transform="matrix(0.1,0,0,-0.1,0,113.39)"/>
<g clip-path="url(#clip1)" clip-rule="nonzero">
<path style=" stroke:none;fill-rule:nonzero;fill:rgb(0%,0%,0%);fill-opacity:1;" d="M 113.136719 111.128906 L 105.636719 109.121094 L 105.636719 113.140625 Z M 113.136719 111.128906 "/>
</g>
<g clip-path="url(#clip2)" clip-rule="nonzero">
<path style="fill:none;stroke-width:5;stroke-linecap:round;stroke-linejoin:round;stroke:rgb(0%,0%,0%);stroke-opacity:1;stroke-miterlimit:10;" d="M 1131.367188 22.610938 L 1056.367188 42.689063 L 1056.367188 2.49375 Z M 1131.367188 22.610938 " transform="matrix(0.1,0,0,-0.1,0,113.39)"/>
</g>
<path style="fill-rule:nonzero;fill:rgb(0%,0%,0%);fill-opacity:1;stroke-width:5;stroke-linecap:round;stroke-linejoin:round;stroke:rgb(0%,0%,0%);stroke-opacity:1;stroke-miterlimit:10;" d="M 22.617188 1131.360938 L 2.5 1056.360938 L 42.695312 1056.360938 Z M 22.617188 1131.360938 " transform="matrix(0.1,0,0,-0.1,0,113.39)"/>
<path style="fill:none;stroke-width:5;stroke-linecap:round;stroke-linejoin:round;stroke:rgb(9.812927%,9.812927%,43.920898%);stroke-opacity:1;stroke-miterlimit:10;" d="M 707.421875 250.853125 L 22.617188 22.610938 " transform="matrix(0.1,0,0,-0.1,0,113.39)"/>
<path style="fill-rule:nonzero;fill:rgb(9.812927%,9.812927%,43.920898%);fill-opacity:1;stroke-width:5;stroke-linecap:round;stroke-linejoin:round;stroke:rgb(9.812927%,9.812927%,43.920898%);stroke-opacity:1;stroke-miterlimit:10;" d="M 778.554688 274.603125 L 701.054688 269.915625 L 713.789062 231.790625 Z M 778.554688 274.603125 " transform="matrix(0.1,0,0,-0.1,0,113.39)"/>
<path style="fill:none;stroke-width:15;stroke-linecap:round;stroke-linejoin:round;stroke:rgb(9.812927%,9.812927%,43.920898%);stroke-opacity:1;stroke-miterlimit:10;" d="M 22.617188 22.610938 L 718.085938 254.446875 " transform="matrix(0.1,0,0,-0.1,0,113.39)"/>
<path style="fill:none;stroke-width:5;stroke-linecap:round;stroke-linejoin:round;stroke:rgb(100%,54.881287%,0%);stroke-opacity:1;stroke-miterlimit:10;" d="M 997.03125 711.478125 L 778.554688 274.603125 " transform="matrix(0.1,0,0,-0.1,0,113.39)"/>
<path style="fill-rule:nonzero;fill:rgb(100%,54.881287%,0%);fill-opacity:1;stroke-width:5;stroke-linecap:round;stroke-linejoin:round;stroke:rgb(100%,54.881287%,0%);stroke-opacity:1;stroke-miterlimit:10;" d="M 1030.546875 778.5875 L 979.0625 720.4625 L 1015 702.49375 Z M 1030.546875 778.5875 " transform="matrix(0.1,0,0,-0.1,0,113.39)"/>
<path style="fill:none;stroke-width:15;stroke-linecap:round;stroke-linejoin:round;stroke:rgb(100%,54.881287%,0%);stroke-opacity:1;stroke-miterlimit:10;" d="M 778.554688 274.603125 L 1010.390625 738.235938 " transform="matrix(0.1,0,0,-0.1,0,113.39)"/>
<path style="fill:none;stroke-width:5;stroke-linecap:round;stroke-linejoin:round;stroke:rgb(18.041992%,54.492188%,34.104919%);stroke-opacity:1;stroke-miterlimit:10;" d="M 970.546875 733.5875 L 22.617188 22.610938 " transform="matrix(0.1,0,0,-0.1,0,113.39)"/>
<path style="fill-rule:nonzero;fill:rgb(18.041992%,54.492188%,34.104919%);fill-opacity:1;stroke-width:5;stroke-linecap:round;stroke-linejoin:round;stroke:rgb(18.041992%,54.492188%,34.104919%);stroke-opacity:1;stroke-miterlimit:10;" d="M 1030.546875 778.5875 L 958.515625 749.642188 L 982.617188 717.49375 Z M 1030.546875 778.5875 " transform="matrix(0.1,0,0,-0.1,0,113.39)"/>
<path style="fill:none;stroke-width:15;stroke-linecap:round;stroke-linejoin:round;stroke:rgb(18.041992%,54.492188%,34.104919%);stroke-opacity:1;stroke-miterlimit:10;" d="M 22.617188 22.610938 L 980.15625 740.775 " transform="matrix(0.1,0,0,-0.1,0,113.39)"/>
</g>
</svg>
